X:1
T:Ibérico, 11.11.11.11
T:Ibérico, 11.11.11.11
T:Anonymous, 1861
T:Public Domain Courtesy of the Cyber Hymnal™
C:Anonymous, 1861
Z:Public Domain
Z:Courtesy of the Cyber Hymnal™
%%score ( 1 2 ) ( 3 4 )
L:1/8
Q:1/4=70
M:3/8
K:F
V:1 treble 
V:2 treble 
V:3 bass 
V:4 bass 
V:1
 F | [Ac] ([Ac]/[Bd]/) ([Ac]/[Bd]/) | [Ac][FA][Ac] | [GB][EG][GB] | [FA]2 F | %5
 [Ac] ([Ac]/[Bd]/) ([Ac]/[Bd]/) | [Ac][FA][Ac] | [GB][GB][FA] | [CG]2 G | [Ec][Ec] ([Fd]/[D=B]/) | %10
 [Ec][EG][Gc] | [ce][ce] ([df]/[=Bd]/) | [ce]2 [Bc] | [Af] ([df]/[^ce]/) ([df]/[Bd]/) | %14
 [Ac][FA][Ac] | [GB][FA][EG] | F2 |] %17
V:2
 F | x3 | x3 | x3 | x2 F | x3 | x3 | x3 | x2 G | x3 | x3 | x3 | x3 | x3 | x3 | x3 | F2 |] %17
V:3
 F, | [F,C][F,C][F,C] | [F,C][F,C][F,C] | [C,G,][C,G,][C,G,] | F,2 F, | [F,C][F,C][F,C] | %6
 [F,C][F,C][F,C] | [C,G,][C,G,][F,C] | [C,G,]2 G, | [C,G,][C,G,][G,,G,] | [C,G,][C,G,][E,C] | %11
 [C,G,][C,G,][G,,G,] | [C,G,]2 [E,C] | [F,C][F,C][B,,F,] | [F,C][F,C][F,C] | [C,G,][F,C][C,G,] | %16
 F,2 |] %17
V:4
 F, | x3 | x3 | x3 | F,2 F, | x3 | x3 | x3 | x2 G, | x3 | x3 | x3 | x3 | x3 | x3 | x3 | F,2 |] %17

